X:1
T:Manderston House
T:Manderston House
T:Abraham MacIntosh
C:Abraham MacIntosh
L:1/8
M:4/4
K:G
V:1 treble 
V:1
 B | G>B G>D G>B d<g | G>B A>G F<D d>F | G>B A>B G>B d>g | a>g b>a g/g/g (g/a/b) | %5
 G>B G>D G>B d>g | G>B A>G F<D d>F | G>B A>B G>B d>g | a<g b>a g/g/g g(g/a/) || b>g a>b g<d g>f | %10
 e/f/e/d/ c/d/c/B/ A/B/A/G/ FD | b<g a>b gd BG | c>e d>B G/G/G G(g/a/) | (3bgb (3afa (3geg (3fdf | %14
 (3ece (3dBG F>A F>D | E<G C>E F>A D>c | B<d Ac BGG || %17

